X: 12681
T: Fath Mo Bhuartha
R: barndance
M: 4/4
K: Dmajor
A>G|F>E D>E F3A|d>e e2 d<c d>A|F3G A>F E2|F3E D3{EDE}D|D4 D2 AG|
F>E D>E F3A|d>e e2 d<c d>A|F3G A>F E2|F3E D3{EDE}D|D4 D2||
(3ABc|d2 e3d (3cAB|=c2 d3e d^c|A2 GE D{EDE}E EA/G/|FE DE F3A|
d>e e2 d<c d>A|F3G A>F E2|F3E D3{EDE}D|D4 D4||

